!!!COM:	Bach, Johann Sebastian
!!!CDT:	1685/02/21/-1750/07/28/
!!!OTL@@DE:	Ach, was soll ich S&uuml;nder machen?
!!!SCT:	BWV 259
!!!PC#:	39
!!!hymn: Breslau, 1657
!!!AGN:	chorale
**kern	**kern	**kern	**kern
*ICvox	*ICvox	*ICvox	*ICvox
*Ibass	*Itenor	*Ialto	*Isoprn
*I"Bass	*I"Tenor	*I"Alto	*I"Soprano
*clefF4	*clefGv2	*clefG2	*clefG2
*k[f#]	*k[f#]	*k[f#]	*k[f#]
*e:	*e:	*e:	*e:
*M4/4	*M4/4	*M4/4	*M4/4
*met(c)	*met(c)	*met(c)	*met(c)
*MM100	*MM100	*MM100	*MM100
=1-	=1-	=1-	=1-
8EL	4G	4B	4e
8F#	.	.	.
8G	4G	4B	4e
8F#J	.	.	.
8EL	4B	4e	4g
8D	.	.	.
8C	4B	4e	4g
8BBJ	.	.	.
=2	=2	=2	=2
8AAL	4c	4e	4a
8GG	.	.	.
8FF#	4d	8aL	4a
8DDJ	.	8f#J	.
4GG	4d	4g	4b
4G;	4d;	4g;	4b;
=3	=3	=3	=3
8GGL	4d	4g	4b
8AA	.	.	.
8BB	8dL	4g	4dd
8EJ	8BJ	.	.
8AAL	8cL	8gL	4cc
8D	8dJ	8f#J	.
8GG	4d	4g	4b
8BBJ	.	.	.
=4	=4	=4	=4
8CL	8eL	4g	4.a
8AAJ	8cJ	.	.
4D	8AL	4f#	.
.	16dL	.	8a
.	16cJJ	.	.
2GG;	2B;	2d;	2g;
=5	=5	=5	=5
8F#L	4d	4f#	4a
8E	.	.	.
8D	[4A	4e	4a
8CJ	.	.	.
8BBL	8AL]	8d#L	4b
8D#J	16GL	8f#J	.
.	16F#JJ	.	.
8EL	8GL	8BL	4g
8CJ	[8cJ	16eL	.
.	.	16d#JJ	.
=6	=6	=6	=6
8AAL	8cL]	4e	4.f#
8FF#J	8AJ	.	.
4BB	8F#L	4d#	.
.	16BL	.	8f#
.	16AJJ	.	.
2EE;	2G;	2B;	2e;
=7	=7	=7	=7
8EEL	4B	4g	4ee
8FF#	.	.	.
8GG	4B	4g	4ee
8AAJ	.	.	.
8BBL	4B	4f#	4dd
8C#	.	.	.
8D	4B	4f#	4dd
8BBJ	.	.	.
=8	=8	=8	=8
8EL	4.B	4g	4cc#
8C#J	.	.	.
4F#	.	4f#	4cc#
.	8A#	.	.
2BB;	4d	4f#	4b
.	4d;	4f#;	4b;
=9	=9	=9	=9
8BL	8dL	4f#	4dd
8AnX	8cnXJ	.	.
8G	4B	4g	4dd
8F#J	.	.	.
8EL	8eL	8gL	4ccnX
8F#	[8dJ	[8aJ	.
8G	8dL]	8aL]	4b
8EJ	[8eJ	8gJ	.
=10	=10	=10	=10
8CL	8eL]	4g	4.a
8AAJ	8cJ	.	.
4D	8AL	4f#	.
.	16dL	.	8a
.	16cJJ	.	.
2GG;	2B;	2d;	2g;
=11	=11	=11	=11
4G	4c#	4e	4a
8F#L	8dL	4f#	4a
8EJ	8cJ	.	.
4D#	4B	4.f#	4b
8EL	8BL	.	4g
8CJ	[8cJ	8e	.
=12	=12	=12	=12
8AAL	8cL]	4e	4.f#
8FF#J	8AJ	.	.
4BB	8F#L	4d#	.
.	16BL	.	8f#
.	16AJJ	.	.
2EE;	2G#;	2B;	2e;
==	==	==	==
*-	*-	*-	*-
!!!hum2abc: -Q ''
!!!title: @{PC#}. @{OTL@@DE}
!!!YOR1: 371 vierstimmige Choralges&auml;nge von Johann Sebastian Bach, 
!!!YOR2: 4th ed. by Alfred D&ouml;rffel (Leipzig: Breitkopf und H&auml;rtel, 
!!!YOR2: c.1875). 178 pp. Plate "V.A.10".  reprint: J.S. Bach, 371 Four-Part 
!!!YOR4: Chorales (New York: Associated Music Publishers, Inc., c.1940).
!!!SMS: B&H, 4th ed, Alfred D&ouml;rffel, c.1875, plate V.A.10
!!!PC#2: 10 (Budapest/Imre, 1982)
!!!EED:  Craig Stuart Sapp
!!!EEV:  2009/05/22
